dist/img/benefits-card_2.svg

<svg width="34" height="32" viewBox="0 0 34 32" fill="none" xmlns="http://www.w3.org/2000/svg">
<path d="M33.6131 12.4573C33.5754 12.2902 33.5017 12.1331 33.397 11.9964C33.2923 11.8598 33.159 11.7469 33.0062 11.6654L29.3953 9.69315C29.2032 9.30467 28.9908 8.93113 28.7581 8.57253L28.8188 4.50843C28.8202 4.33796 28.7859 4.16905 28.718 4.01223C28.6501 3.85541 28.5502 3.71405 28.4243 3.59699C26.6264 1.99162 24.5002 0.784149 22.1887 0.0558416C22.0228 0.00486814 21.8477 -0.0108345 21.6751 0.00977076C21.5024 0.0303761 21.3362 0.0868204 21.1874 0.175374L17.6524 2.26719C17.2124 2.25225 16.7876 2.25225 16.3476 2.26719L12.8126 0.175374C12.6638 0.0868204 12.4976 0.0303761 12.325 0.00977076C12.1523 -0.0108345 11.9773 0.00486814 11.8113 0.0558416C9.49675 0.784703 7.36962 1.99778 5.57566 3.61193C5.44874 3.72497 5.34786 3.86346 5.27982 4.0181C5.21178 4.17273 5.17815 4.33992 5.18119 4.50843L5.25705 8.57253C5.0143 8.93113 4.8019 9.30467 4.5895 9.69315L0.993787 11.6654C0.839048 11.7445 0.704232 11.8566 0.599222 11.9937C0.494213 12.1307 0.421672 12.2891 0.386917 12.4573C-0.128972 14.7908 -0.128972 17.2062 0.386917 19.5396C0.424602 19.7067 0.498287 19.8639 0.602987 20.0005C0.707686 20.1371 0.840958 20.25 0.993787 20.3315L4.60467 22.3038C4.79824 22.6904 5.01612 23.0646 5.25705 23.4244L5.18119 27.4885C5.17981 27.659 5.21412 27.8279 5.28199 27.9847C5.34986 28.1416 5.44983 28.2829 5.57566 28.4C7.37605 30.002 9.50151 31.209 11.8113 31.9411C11.9773 31.9921 12.1523 32.0078 12.325 31.9872C12.4976 31.9666 12.6638 31.9101 12.8126 31.8216L16.3476 29.7298H17.6524L21.2026 31.8216C21.3871 31.9411 21.6038 32.0036 21.8246 32.0009C21.948 31.9956 22.0703 31.9756 22.1887 31.9411C24.5033 31.2123 26.6304 29.9992 28.4243 28.385C28.5513 28.272 28.6521 28.1335 28.7202 27.9789C28.7882 27.8242 28.8219 27.657 28.8188 27.4885L28.7581 23.4244C28.9857 23.0658 29.1981 22.6923 29.4105 22.3038L33.0214 20.3315C33.172 20.2492 33.3028 20.1358 33.4049 19.9991C33.507 19.8625 33.578 19.7058 33.6131 19.5396C34.129 17.2062 34.129 14.7908 33.6131 12.4573ZM23.6756 15.9985C23.6756 17.2988 23.2841 18.5698 22.5505 19.651C21.817 20.7321 20.7744 21.5747 19.5546 22.0723C18.3348 22.5699 16.9926 22.7001 15.6977 22.4464C14.4027 22.1928 13.2133 21.5666 12.2797 20.6472C11.3461 19.7278 10.7103 18.5564 10.4527 17.2811C10.1951 16.0058 10.3273 14.6839 10.8326 13.4826C11.3378 12.2813 12.1935 11.2546 13.2912 10.5322C14.389 9.80977 15.6797 9.4242 17 9.4242C18.7705 9.4242 20.4684 10.1168 21.7203 11.3498C22.9723 12.5827 23.6756 14.2549 23.6756 15.9985Z" fill="#292930"/>
</svg>

<svg width="34" height="32" fill="none" xmlns="http://www.w3.org/2000/svg"><path d="M33.613 12.457a1.188 1.188 0 00-.607-.792l-3.61-1.972a11.074 11.074 0 00-.638-1.12l.06-4.065a1.223 1.223 0 00-.394-.911A17.057 17.057 0 0022.19.056a1.246 1.246 0 00-1.002.12l-3.535 2.091a18.9 18.9 0 00-1.304 0L12.813.175a1.241 1.241 0 00-1.002-.12 16.919 16.919 0 00-6.235 3.557 1.181 1.181 0 00-.395.896l.076 4.065c-.243.358-.455.732-.667 1.12L.994 11.665a1.164 1.164 0 00-.607.792 16.398 16.398 0 000 7.083 1.187 1.187 0 00.607.791l3.61 1.973c.194.386.412.76.653 1.12l-.076 4.064a1.224 1.224 0 00.395.912 17.194 17.194 0 006.235 3.541 1.247 1.247 0 001.002-.12l3.535-2.091h1.304l3.55 2.092c.185.12.402.182.623.179.123-.005.245-.025.364-.06a16.916 16.916 0 006.235-3.556 1.18 1.18 0 00.395-.897l-.06-4.064c.227-.358.44-.732.651-1.12l3.611-1.973a1.192 1.192 0 00.592-.791 16.398 16.398 0 000-7.083zm-9.937 3.541a6.51 6.51 0 01-1.125 3.653 6.655 6.655 0 01-2.996 2.421 6.77 6.77 0 01-3.857.374 6.707 6.707 0 01-3.418-1.799 6.544 6.544 0 01-1.827-3.366 6.481 6.481 0 01.38-3.798 6.597 6.597 0 012.458-2.95A6.749 6.749 0 0117 9.423c1.77 0 3.468.693 4.72 1.926a6.524 6.524 0 011.956 4.649z" fill="#292930"/></svg>
